dist/svgs/devui-icons/op/star-o.svg

<?xml version="1.0" encoding="UTF-8"?>
<svg width="16px" height="16px" viewBox="0 0 16 16" version="1.1" xmlns="http://www.w3.org/2000/svg" xmlns:xlink="http://www.w3.org/1999/xlink">
    <title>收藏星标_描边</title>
    <desc>Created with Sketch.</desc>
    <g id="收藏星标_描边" stroke="none" stroke-width="1" fill="none" fill-rule="evenodd">
        <g fill="#293040" fill-rule="nonzero" id="形状">
            <path d="M8,12.7603585 L3.67376208,14.3147912 L3.81523437,9.71994835 L1,6.0857977 L5.41367261,4.80046131 L8,1 L10.5863274,4.80046131 L15,6.0857977 L12.1847656,9.71994835 L12.3262379,14.3147912 L8,12.7603585 Z M5.76325836,11.4388463 L8,10.6351771 L10.2367416,11.4388463 L10.163598,9.06323116 L11.619124,7.1843109 L9.33717708,6.51976922 L8,4.5548634 L6.66282292,6.51976922 L4.380876,7.1843109 L5.83640204,9.06323116 L5.76325836,11.4388463 Z"></path>
        </g>
    </g>
</svg>

<svg xmlns="http://www.w3.org/2000/svg" viewBox="0 0 16 16"><path d="M8 12.76l-4.326 1.555.141-4.595L1 6.086 5.414 4.8 8 1l2.586 3.8L15 6.086 12.185 9.72l.141 4.595L8 12.76zm-2.237-1.32L8 10.635l2.237.804-.073-2.376 1.455-1.879-2.282-.664L8 4.555 6.663 6.52l-2.282.664 1.455 1.88-.073 2.375z"/></svg>
